Origami/16x16/apps/fluid.svg

<svg width="16" height="16" version="1" xmlns="http://www.w3.org/2000/svg">
 <rect x="6" width="4" height="8" ry="1.6" style="fill:#cccccc"/>
 <path d="m8.1301627 5.6024668a2.7653345 2.2354162 0 0 0 -2.5245581 1.1150072l-2.1177383 2.9649516-2.1177387 2.9649504a2.7653345 2.2354162 0 0 0 2.3948909 3.352624h4.2349813 4.2349812a2.7653345 2.2354162 0 0 0 2.394891 -3.352624l-2.117738-2.9649504-2.117244-2.9649516a2.7653345 2.2354162 0 0 0 -2.2647273 -1.1150072z" style="fill:#cccccc"/>
 <path d="M 8.5,3 A 0.5,0.5 0 0 0 8,3.5 0.5,0.5 0 0 0 8.5,4 0.5,0.5 0 0 0 9,3.5 0.5,0.5 0 0 0 8.5,3 Z" style="fill:#578aff"/>
 <path d="M 7.5,5 A 0.5,0.5 0 0 0 7,5.5 0.5,0.5 0 0 0 7.5,6 0.5,0.5 0 0 0 8,5.5 0.5,0.5 0 0 0 7.5,5 Z" style="fill:#578aff"/>
 <path d="M 8.5,7 A 0.5,0.5 0 0 0 8,7.5 0.5,0.5 0 0 0 8.5,8 0.5,0.5 0 0 0 9,7.5 0.5,0.5 0 0 0 8.5,7 Z" style="fill:#578aff"/>
 <path d="M 6.5,9 A 0.5,0.5 0 0 0 6,9.5 0.5,0.5 0 0 0 6.5,10 0.5,0.5 0 0 0 7,9.5 0.5,0.5 0 0 0 6.5,9 Z" style="fill:#578aff"/>
 <path d="m4.965862 11-0.754273 1.065674a1.5802156 1.2896632 0 0 0 1.368629 1.934326h2.4197815 2.4197815a1.5802156 1.2896632 0 0 0 1.36863 -1.934326l-0.754274-1.065674h-6.068275z" style="fill:#578aff"/>
</svg>

<svg xmlns="http://www.w3.org/2000/svg" width="16" height="16" version="1">
 <rect style="fill:#cccccc" width="4" height="8" x="6" y="0" ry="1.6"/>
 <path style="fill:#cccccc" d="M 8.1301627,5.6024668 A 2.7653345,2.2354162 0 0 0 5.6056046,6.717474 L 3.4878663,9.6824256 1.3701276,12.647376 A 2.7653345,2.2354162 0 0 0 3.7650185,16 l 4.2349813,0 4.2349812,0 a 2.7653345,2.2354162 0 0 0 2.394891,-3.352624 L 12.512134,9.6824256 10.39489,6.717474 A 2.7653345,2.2354162 0 0 0 8.1301627,5.6024668 Z"/>
 <path style="fill:#578aff" d="M 8.5,3 A 0.5,0.5 0 0 0 8,3.5 0.5,0.5 0 0 0 8.5,4 0.5,0.5 0 0 0 9,3.5 0.5,0.5 0 0 0 8.5,3 Z"/>
 <path style="fill:#578aff" d="M 7.5,5 A 0.5,0.5 0 0 0 7,5.5 0.5,0.5 0 0 0 7.5,6 0.5,0.5 0 0 0 8,5.5 0.5,0.5 0 0 0 7.5,5 Z"/>
 <path style="fill:#578aff" d="M 8.5,7 A 0.5,0.5 0 0 0 8,7.5 0.5,0.5 0 0 0 8.5,8 0.5,0.5 0 0 0 9,7.5 0.5,0.5 0 0 0 8.5,7 Z"/>
 <path style="fill:#578aff" d="M 6.5,9 A 0.5,0.5 0 0 0 6,9.5 0.5,0.5 0 0 0 6.5,10 0.5,0.5 0 0 0 7,9.5 0.5,0.5 0 0 0 6.5,9 Z"/>
 <path style="fill:#578aff" d="M 4.965862,11 4.211589,12.065674 A 1.5802156,1.2896632 0 0 0 5.580218,14 l 2.4197815,0 2.4197815,0 a 1.5802156,1.2896632 0 0 0 1.36863,-1.934326 L 11.034137,11 4.965862,11 Z"/>
</svg>
